lib/svgs/star.svg

<?xml version="1.0" encoding="UTF-8"?>
<svg width="16px" height="16px" viewBox="0 0 16 16" version="1.1" xmlns="http://www.w3.org/2000/svg" xmlns:xlink="http://www.w3.org/1999/xlink">
    <!-- Generator: sketchtool 51.3 (57544) - http://www.bohemiancoding.com/sketch -->
    <title>app/star</title>
    <desc>Created with sketchtool.</desc>
    <defs></defs>
    <g id="Icons" stroke="none" stroke-width="1" fill="none" fill-rule="evenodd">
        <g id="Web" transform="translate(-433.000000, -664.000000)" fill="#000000">
            <g id="app/star" transform="translate(433.000000, 664.000000)">
                <path d="M3.4267178,15.6232557 C3.3017178,15.6232557 3.1787178,15.5852557 3.0737178,15.5092557 C2.8887178,15.3752557 2.7967178,15.1482557 2.8347178,14.9222557 L3.6557178,10.1402557 L0.1817178,6.75425569 C0.0177177999,6.59425569 -0.0412822001,6.35625569 0.0297177999,6.13925569 C0.0997177999,5.92125569 0.2877178,5.76325569 0.5137178,5.73025569 L5.3147178,5.03325569 L7.4617178,0.682255686 C7.6637178,0.273255686 8.3357178,0.273255686 8.5377178,0.682255686 L10.6847178,5.03325569 L15.4867178,5.73025569 C15.7127178,5.76325569 15.8997178,5.92125569 15.9707178,6.13925569 C16.0407178,6.35625569 15.9827178,6.59425569 15.8187178,6.75425569 L12.3447178,10.1402557 L13.1647178,14.9222557 C13.2027178,15.1482557 13.1107178,15.3752557 12.9257178,15.5092557 C12.7417178,15.6452557 12.4967178,15.6612557 12.2937178,15.5552557 L7.9997178,13.2972557 L3.7057178,15.5552557 C3.6177178,15.6012557 3.5217178,15.6232557 3.4267178,15.6232557 L3.4267178,15.6232557" id="Shape"></path>
            </g>
        </g>
    </g>
</svg>

<svg xmlns="http://www.w3.org/2000/svg" viewBox="0 0 16 16">
    <path d="M3.427 15.623a.6.6 0 0 1-.592-.7l.82-4.783L.183 6.754A.599.599 0 0 1 .514 5.73l4.8-.697L7.463.683c.202-.41.874-.41 1.076 0l2.147 4.35 4.802.697a.6.6 0 0 1 .332 1.024l-3.474 3.386.82 4.782a.6.6 0 0 1-.871.633L8 13.297l-4.294 2.258a.602.602 0 0 1-.28.068"/>
</svg>
